images/bloomberg.svg

<svg width="83" height="17" viewBox="0 0 83 17" fill="none" xmlns="http://www.w3.org/2000/svg">
<path d="M0.863281 0.882812H6.88448C8.03138 0.882812 8.89155 1.17475 9.52871 1.6613C10.2296 2.24517 10.6119 3.08853 10.6119 4.12652C10.6119 5.32669 10.134 6.07275 9.17828 6.52687V6.59174C10.4526 7.01342 11.1853 8.18116 11.1853 9.57595C11.1853 10.9059 10.6756 11.9439 9.84729 12.5926C9.14641 13.1116 8.25438 13.3387 7.04377 13.3387H0.863281V0.882812ZM6.27918 5.74838C6.91634 5.74838 7.39421 5.39157 7.39421 4.64552C7.39421 3.9319 6.91634 3.57509 6.24732 3.57509H4.17654V5.71594H6.27918V5.74838ZM6.5659 10.5815C7.29864 10.5815 7.84023 10.1274 7.84023 9.31646C7.84023 8.44066 7.26678 8.05141 6.5659 8.05141H4.20839V10.6139H6.5659V10.5815ZM11.7269 0.882812H14.8809V13.3711H11.7269V0.882812ZM15.5181 8.92721C15.5181 6.10518 17.3021 4.22383 20.0738 4.22383C22.8454 4.22383 24.5976 6.13762 24.5976 8.92721C24.5976 11.7492 22.8454 13.6306 20.0738 13.6306C17.3021 13.6306 15.5181 11.7492 15.5181 8.92721ZM21.4437 8.92721C21.4437 7.37023 20.9658 6.39712 20.0101 6.39712C19.0543 6.39712 18.6083 7.37023 18.6083 8.92721C18.6083 10.4842 19.0543 11.4897 20.0101 11.4897C20.9658 11.4573 21.4437 10.4842 21.4437 8.92721ZM24.9481 8.92721C24.9481 6.10518 26.7321 4.22383 29.5038 4.22383C32.2755 4.22383 33.9958 6.10518 33.9958 8.92721C33.9958 11.7492 32.2436 13.6306 29.472 13.6306C26.7321 13.6306 24.9481 11.7492 24.9481 8.92721ZM30.8737 8.92721C30.8737 7.37023 30.3958 6.39712 29.4401 6.39712C28.4843 6.39712 28.0383 7.37023 28.0383 8.92721C28.0383 10.4842 28.4843 11.4897 29.4401 11.4897C30.3958 11.4573 30.8737 10.4842 30.8737 8.92721ZM34.633 4.45089H37.5639V5.78081H37.6276C38.2011 4.74283 38.9976 4.1914 40.2719 4.1914C41.3869 4.1914 42.2152 4.74283 42.6294 5.71594H42.6931C43.394 4.5482 44.3179 4.1914 45.4011 4.1914C47.44 4.1914 48.3001 5.71594 48.3001 7.75948V13.3387H45.2418V8.31091C45.2418 7.40267 44.955 6.8188 44.1904 6.8188C43.4258 6.8188 43.0435 7.53242 43.0435 8.50553V13.3387H39.9852V8.31091C39.9852 7.40267 39.6984 6.8188 38.9338 6.8188C38.1692 6.8188 37.7869 7.53242 37.7869 8.50553V13.3387H34.633V4.45089ZM52.155 12.1709H52.1231V13.3387H49.1922V0.882812H52.2506V5.35913H52.3143C52.8877 4.58064 53.6842 4.15896 54.7992 4.15896C56.9974 4.15896 58.2718 6.17006 58.2718 8.86234C58.2718 11.879 56.9019 13.6306 54.6081 13.6306C53.6523 13.6306 52.6647 13.1765 52.155 12.1709ZM55.1178 8.8299C55.1178 7.40267 54.6081 6.46199 53.6842 6.46199C52.7284 6.46199 52.155 7.40267 52.155 8.8299C52.155 10.2571 52.7603 11.1978 53.6842 11.1978C54.6081 11.1978 55.1178 10.2896 55.1178 8.8299ZM58.6222 8.89478C58.6222 6.10519 60.4381 4.1914 63.0505 4.1914C64.3567 4.1914 65.3443 4.61308 66.1089 5.35913C67.1283 6.36468 67.5744 7.92166 67.5425 9.73814H61.6806C61.808 10.841 62.3178 11.4249 63.2416 11.4249C63.7832 11.4249 64.2611 11.1654 64.4523 10.5815H67.4151C66.9053 12.625 65.3443 13.6306 63.1461 13.6306C60.4381 13.5982 58.6222 11.7168 58.6222 8.89478ZM61.6806 7.9541H64.4841C64.4204 6.88367 63.847 6.33224 63.1142 6.33224C62.254 6.29981 61.7762 6.91611 61.6806 7.9541ZM71.0151 5.97544H71.0788C71.7159 4.74283 72.5442 4.25627 73.5956 4.25627C73.8504 4.25627 74.0097 4.28871 74.1053 4.35358V7.0783H74.0416C72.2257 6.75393 71.1743 7.62973 71.1743 9.64083V13.3711H68.0841V4.45089H71.0151V5.97544ZM74.4239 13.3711H77.3867C77.5141 13.7603 77.8964 14.1171 78.6292 14.1171C79.6168 14.1171 79.9672 13.5008 79.9672 12.5602V11.9114H79.9035C79.4256 12.4953 78.7566 12.917 77.8008 12.917C75.9212 12.917 74.2646 11.4897 74.2646 8.70015C74.2646 6.13762 75.6026 4.15896 77.6416 4.15896C78.8203 4.15896 79.5212 4.64552 79.9991 5.39157H80.0628V4.41846H82.9937V12.1385C82.9937 13.5657 82.5159 14.6686 81.7831 15.3173C81.0185 15.9985 79.9353 16.2904 78.6929 16.2904C76.3354 16.3229 74.7106 15.3498 74.4239 13.3711ZM80.0946 8.5704C80.0946 7.46754 79.5849 6.5593 78.6929 6.5593C77.8327 6.5593 77.2911 7.33779 77.2911 8.5704C77.2911 9.77058 77.8327 10.6139 78.6929 10.6139C79.553 10.6139 80.0946 9.73814 80.0946 8.5704Z" fill="#BFBDB8"/>
</svg>

<svg xmlns="http://www.w3.org/2000/svg" width="83" height="17" fill="none"><path fill="#BFBDB8" d="M.863.883h6.021c1.147 0 2.008.292 2.645.778.7.584 1.083 1.428 1.083 2.466 0 1.2-.478 1.946-1.434 2.4v.065c1.275.421 2.007 1.59 2.007 2.984 0 1.33-.51 2.368-1.338 3.017-.7.519-1.593.746-2.803.746H.864zM6.28 5.748c.637 0 1.115-.356 1.115-1.102 0-.714-.478-1.07-1.147-1.07h-2.07v2.14h2.102zm.287 4.834c.733 0 1.274-.455 1.274-1.266 0-.875-.573-1.265-1.274-1.265H4.208v2.563h2.358zm5.16-9.7h3.155v12.49h-3.154zm3.792 8.045c0-2.822 1.784-4.703 4.556-4.703 2.771 0 4.524 1.914 4.524 4.703 0 2.822-1.753 4.704-4.524 4.704s-4.556-1.882-4.556-4.704m5.926 0c0-1.557-.478-2.53-1.434-2.53s-1.402.973-1.402 2.53.446 2.563 1.402 2.563c.956-.033 1.434-1.006 1.434-2.563m3.504 0c0-2.822 1.784-4.703 4.556-4.703 2.771 0 4.492 1.881 4.492 4.703s-1.752 4.704-4.524 4.704c-2.74 0-4.524-1.882-4.524-4.704m5.926 0c0-1.557-.478-2.53-1.434-2.53s-1.402.973-1.402 2.53.446 2.563 1.402 2.563c.956-.033 1.434-1.006 1.434-2.563m3.759-4.476h2.93v1.33h.065c.573-1.038 1.37-1.59 2.644-1.59 1.115 0 1.943.552 2.357 1.525h.064c.701-1.168 1.625-1.525 2.708-1.525 2.039 0 2.9 1.525 2.9 3.568v5.58h-3.06V8.31c0-.908-.286-1.492-1.05-1.492-.765 0-1.148.713-1.148 1.687v4.833h-3.058V8.31c0-.908-.287-1.492-1.051-1.492-.765 0-1.147.713-1.147 1.687v4.833h-3.154zm17.522 7.72h-.032v1.168h-2.93V.883h3.058v4.476h.063c.574-.778 1.37-1.2 2.485-1.2 2.198 0 3.473 2.011 3.473 4.703 0 3.017-1.37 4.769-3.664 4.769-.956 0-1.943-.454-2.453-1.46m2.963-3.341c0-1.427-.51-2.368-1.434-2.368-.956 0-1.529.94-1.529 2.368s.605 2.368 1.53 2.368c.923 0 1.433-.908 1.433-2.368m3.504.065c0-2.79 1.816-4.704 4.429-4.704 1.306 0 2.293.422 3.058 1.168 1.02 1.006 1.465 2.563 1.434 4.38H61.68c.127 1.102.637 1.686 1.56 1.686.542 0 1.02-.26 1.211-.844h2.963c-.51 2.044-2.07 3.05-4.269 3.05-2.708-.033-4.524-1.914-4.524-4.736m3.059-.94h2.803c-.064-1.071-.637-1.623-1.37-1.623-.86-.032-1.338.584-1.433 1.622m9.334-1.98h.064c.637-1.232 1.465-1.719 2.517-1.719.254 0 .414.033.51.098v2.724h-.064c-1.816-.324-2.868.552-2.868 2.563v3.73h-3.09v-8.92h2.931zm3.409 7.396h2.963c.127.39.51.746 1.242.746.988 0 1.338-.616 1.338-1.557v-.649h-.064c-.477.584-1.146 1.006-2.102 1.006-1.88 0-3.536-1.427-3.536-4.217 0-2.562 1.338-4.541 3.377-4.541 1.178 0 1.88.487 2.357 1.233h.064v-.974h2.93v7.72c0 1.428-.477 2.53-1.21 3.18-.764.68-1.848.972-3.09.972-2.358.033-3.982-.94-4.27-2.919m5.67-4.8c0-1.103-.51-2.012-1.401-2.012-.86 0-1.402.779-1.402 2.011 0 1.2.542 2.044 1.402 2.044s1.402-.876 1.402-2.044"/></svg>
